frontend/public/drawerSettingOrange.svg

<svg width="36" height="36" viewBox="0 0 36 36" fill="none" xmlns="http://www.w3.org/2000/svg">
<path d="M18 24.75C16.665 24.75 15.3599 24.3541 14.2499 23.6124C13.1399 22.8707 12.2747 21.8165 11.7638 20.5831C11.2529 19.3497 11.1193 17.9925 11.3797 16.6831C11.6402 15.3738 12.283 14.171 13.227 13.227C14.171 12.283 15.3738 11.6402 16.6831 11.3797C17.9925 11.1193 19.3497 11.2529 20.5831 11.7638C21.8165 12.2747 22.8707 13.1399 23.6124 14.2499C24.3541 15.3599 24.75 16.665 24.75 18C24.7596 18.8891 24.5916 19.7712 24.2558 20.5945C23.92 21.4178 23.4232 22.1657 22.7945 22.7945C22.1657 23.4232 21.4178 23.92 20.5945 24.2558C19.7712 24.5916 18.8891 24.7596 18 24.75ZM18 13.5C17.4054 13.4865 16.8141 13.5936 16.262 13.815C15.71 14.0363 15.2085 14.3673 14.7879 14.7879C14.3673 15.2085 14.0363 15.71 13.815 16.262C13.5936 16.8141 13.4865 17.4054 13.5 18C13.4865 18.5947 13.5936 19.1859 13.815 19.738C14.0363 20.29 14.3673 20.7915 14.7879 21.2121C15.2085 21.6327 15.71 21.9637 16.262 22.185C16.8141 22.4064 17.4054 22.5135 18 22.5C18.5947 22.5135 19.1859 22.4064 19.738 22.185C20.29 21.9637 20.7915 21.6327 21.2121 21.2121C21.6327 20.7915 21.9637 20.29 22.185 19.738C22.4064 19.1859 22.5135 18.5947 22.5 18C22.5135 17.4054 22.4064 16.8141 22.185 16.262C21.9637 15.71 21.6327 15.2085 21.2121 14.7879C20.7915 14.3673 20.29 14.0363 19.738 13.815C19.1859 13.5936 18.5947 13.4865 18 13.5Z" fill="#FB4A04"/>
<path d="M32.9676 12.4245L30.3126 7.8255C30.0527 7.37458 29.6444 7.02782 29.1573 6.8444C28.6702 6.66098 28.1346 6.65227 27.6418 6.81975L24.9036 7.74563C24.4317 7.42791 23.9385 7.14299 23.4276 6.89287L22.8617 4.059C22.7597 3.54875 22.484 3.08962 22.0816 2.75978C21.6791 2.42995 21.1748 2.24979 20.6545 2.25H15.3445C14.8241 2.24979 14.3198 2.42995 13.9173 2.75978C13.5149 3.08962 13.2392 3.54875 13.1372 4.059L12.5713 6.89287C12.0546 7.14025 11.5558 7.42331 11.0785 7.74L8.35595 6.81975C7.86347 6.65285 7.32836 6.66187 6.84179 6.84526C6.35521 7.02865 5.94726 7.37507 5.68745 7.8255L3.03245 12.4245C2.77237 12.8748 2.6763 13.4013 2.7606 13.9145C2.84489 14.4277 3.10435 14.8958 3.49483 15.2392L5.6672 17.1484C5.64808 17.4319 5.62445 17.7131 5.62445 18C5.62445 18.2903 5.6357 18.5771 5.65595 18.8618L3.49595 20.7607C3.10511 21.1039 2.84522 21.5719 2.76051 22.0851C2.6758 22.5983 2.7715 23.1249 3.03133 23.5755L5.68633 28.1745C5.94605 28.6256 6.3543 28.9726 6.84138 29.1562C7.32846 29.3399 7.86418 29.3488 8.35708 29.1814L11.0953 28.2544C11.5671 28.5727 12.0602 28.858 12.5713 29.1082L13.1372 31.941C13.2392 32.4513 13.5149 32.9104 13.9173 33.2402C14.3198 33.5701 14.8241 33.7502 15.3445 33.75H20.2495V31.5H15.3445L14.5457 27.5063C13.4408 27.0958 12.415 26.4975 11.5138 25.7378L7.63595 27.0495L4.98095 22.4505L8.04658 19.7561C7.83684 18.5927 7.83417 17.4014 8.0387 16.2371L4.98095 13.5495L7.63595 8.9505L11.4913 10.2555C12.399 9.4947 13.4327 8.89847 14.5457 8.49375L15.3445 4.5H20.6545L21.4532 8.49375C22.5581 8.90427 23.5838 9.50257 24.4851 10.2622L28.363 8.9505L31.018 13.5495L27.8702 16.308L29.353 18L32.503 15.2392C32.8938 14.8961 33.1537 14.4281 33.2384 13.9149C33.3231 13.4017 33.2274 12.8751 32.9676 12.4245Z" fill="#FB4A04"/>
<path d="M25.875 29.4525L22.9612 26.5388L21.375 28.125L25.875 32.625L33.75 24.75L32.1637 23.1638L25.875 29.4525Z" fill="#FB4A04"/>
</svg>

<?xml version="1.0" encoding="UTF-8"?>
<svg id="Layer_1" data-name="Layer 1" xmlns="http://www.w3.org/2000/svg" width="36" height="36" viewBox="0 0 36 36">
  <defs>
    <style>
      .cls-1 {
        fill: #eece93;
        stroke-width: 0px;
      }
    </style>
  </defs>
  <path class="cls-1" d="M18,24.75c-1.33,0-2.64-.4-3.75-1.14-1.11-.74-1.98-1.8-2.49-3.03-.51-1.23-.64-2.59-.38-3.9.26-1.31.9-2.51,1.85-3.46.94-.94,2.15-1.59,3.46-1.85,1.31-.26,2.67-.13,3.9.38,1.23.51,2.29,1.38,3.03,2.49.74,1.11,1.14,2.42,1.14,3.75,0,.89-.16,1.77-.49,2.59-.34.82-.83,1.57-1.46,2.2-.63.63-1.38,1.13-2.2,1.46-.82.34-1.71.5-2.59.49ZM18,13.5c-.59-.01-1.19.09-1.74.31-.55.22-1.05.55-1.47.97s-.75.92-.97,1.47c-.22.55-.33,1.14-.31,1.74-.01.59.09,1.19.31,1.74.22.55.55,1.05.97,1.47.42.42.92.75,1.47.97.55.22,1.14.33,1.74.32.59.01,1.19-.09,1.74-.32.55-.22,1.05-.55,1.47-.97.42-.42.75-.92.97-1.47.22-.55.33-1.14.32-1.74.01-.59-.09-1.19-.32-1.74-.22-.55-.55-1.05-.97-1.47-.42-.42-.92-.75-1.47-.97-.55-.22-1.14-.33-1.74-.31Z"/>
  <path class="cls-1" d="M32.97,12.42l-2.66-4.6c-.26-.45-.67-.8-1.16-.98-.49-.18-1.02-.19-1.52-.02l-2.74.93c-.47-.32-.97-.6-1.48-.85l-.57-2.83c-.1-.51-.38-.97-.78-1.3-.4-.33-.91-.51-1.43-.51h-5.31c-.52,0-1.02.18-1.43.51-.4.33-.68.79-.78,1.3l-.57,2.83c-.52.25-1.02.53-1.49.85l-2.72-.92c-.49-.17-1.03-.16-1.51.03-.49.18-.89.53-1.15.98l-2.65,4.6c-.26.45-.36.98-.27,1.49.08.51.34.98.73,1.32l2.17,1.91c-.02.28-.04.56-.04.85s.01.58.03.86l-2.16,1.9c-.39.34-.65.81-.74,1.32-.08.51.01,1.04.27,1.49l2.65,4.6c.26.45.67.8,1.16.98.49.18,1.02.19,1.52.03l2.74-.93c.47.32.96.6,1.48.85l.57,2.83c.1.51.38.97.78,1.3.4.33.91.51,1.43.51h4.91v-2.25h-4.91l-.8-3.99c-1.1-.41-2.13-1.01-3.03-1.77l-3.88,1.31-2.66-4.6,3.07-2.69c-.21-1.16-.21-2.35,0-3.52l-3.06-2.69,2.66-4.6,3.86,1.31c.91-.76,1.94-1.36,3.05-1.76l.8-3.99h5.31l.8,3.99c1.1.41,2.13,1.01,3.03,1.77l3.88-1.31,2.65,4.6-3.15,2.76,1.48,1.69,3.15-2.76c.39-.34.65-.81.74-1.32.08-.51-.01-1.04-.27-1.49Z"/>
  <path class="cls-1" d="M25.88,29.45l-2.91-2.91-1.59,1.59,4.5,4.5,7.88-7.88-1.59-1.59-6.29,6.29Z"/>
</svg>
